dist/svg/static/fuel-large.svg

<svg xmlns="http://www.w3.org/2000/svg" width="48" height="48" viewBox="0 0 48 48"><path d="M32 44.5H2m26.5 0V6c0-1.183-.817-2.5-2-2.5h-19c-1.183 0-2 1.317-2 2.5v38.5h23zm-2.5-24H8m28.5-17l9 9v21a1.912 1.912 0 0 1-2 2h-4a2 2 0 0 1-2-2v-11a2.006 2.006 0 0 0-2-2H31" fill="none" stroke="currentColor" stroke-miterlimit="10"/></svg>

<?xml version="1.0" encoding="UTF-8" standalone="no"?>
<svg width="48px" height="48px" viewBox="0 0 48 48" version="1.1" xmlns="http://www.w3.org/2000/svg" xmlns:xlink="http://www.w3.org/1999/xlink">
    <!-- Generator: sketchtool 46.2 (44496) - http://www.bohemiancoding.com/sketch -->
    <title>fuel-large</title>
    <desc>Created with sketchtool.</desc>
    <defs></defs>
    <g id="icons-published" stroke="none" stroke-width="1" fill="none" fill-rule="evenodd">
        <g id="briefing" transform="translate(0.000000, -666.000000)"></g>
        <g id="fuel-large" stroke="#000000">
            <path d="M32,44.5 L2,44.5 M28.5,44.5 L28.5,6 C28.5,4.8 27.7,3.5 26.5,3.5 L7.5,3.5 C6.3,3.5 5.5,4.8 5.5,6 L5.5,44.5 M26,20.5 L8,20.5" id="Shape"></path>
            <path d="M36.5,3.5 L45.5,12.5 L45.5,33.5 C45.5,34.6 44.7,35.5 43.7,35.5 C43.6,35.5 43.6,35.5 43.5,35.5 L39.5,35.5 C38.4,35.5 37.5,34.6 37.5,33.5 L37.5,22.5 C37.5,21.4 36.6,20.5 35.5,20.5 L31,20.5" id="Path"></path>
        </g>
    </g>
</svg>
